X:1
T:Title
%%score 1 2
L:1/8
Q:1/4=85
M:2/4
K:C
V:1 treble nm="Grand Piano, Soprano"
V:2 bass nm="Choir Pad, Little Soldiers (Shuss)"
V:1
 [Ec][Ec] [GB][GB] | [FA][FA] [EG]2 | [CA][CA] [CG][CE] | [B,D]2 z2 | [EG][EG] [CE][EG] | %5
w: By~James~Hott~Ruebush * * *|||||
 [FA][FA] [FA]2 | [FB][FB] [FA][FB] | [Ec]2 z2 | [Gd][Gd] [Gd]2 | [Ge][Ge] [Ge]2 | %10
w: |||||
 [Gd][^Fc] [FB][FA] | G2 z2 | [EG][EG] [CE][EG] | [FA][FA] [FA]2 | [FB][FB] [FA][FB] | [Ec]4- | %16
w: ||||||
 [Ec]2 z2 |] %17
w: |
V:2
 [C,G,][C,G,] [C,C][C,C] | [C,C][C,C] [C,C]2 | [F,C][F,C] [E,C][C,G,] | G,2 z2 | %4
 [C,C][C,C] [C,G,][C,C] | [F,C][F,C] [F,C]2 | G,G, G,G, | [C,G,]2 z2 | [G,B,][G,B,] [G,B,]2 | %9
 [C,C][C,C] [C,C]2 | [D,B,][D,D] [D,D][D,C] | [G,B,]2 z2 | [C,C][C,C] [C,C][C,C] | %13
 [F,C][F,C] [F,C]2 | G,G, G,G, | [C,G,]4- | [C,G,]2 z2 |] %17

